X:98
T:Just For Fun
R:jig
C:Bruce Osborne - Dec. 2002
Z:abc by bosborne@kos.net
M:6/8
L:1/8
K:Gmaj
B,/A,/|G,B,D DB,G,|CB,C EGE|DFA AFD|GFG EDB,|\
G,B,D DB,G,|CB,C EGE|DFA AFD|BAF G2:|
|:B/c/|dBG dBG|ecA ecA|dBG dBG|FAA A2 B/c/|\
dBG dBG|ecA ecA|dBG dBG|FBA G2:|\
